storage/app/icons/phosphoricons/bold/note-blank-bold.svg

<svg xmlns="http://www.w3.org/2000/svg" fill="currentColor" viewBox="0 0 256 256"><path d="M208 28H48a20 20 0 0 0-20 20v160a20 20 0 0 0 20 20h108.69a19.86 19.86 0 0 0 14.14-5.86l51.31-51.31a19.86 19.86 0 0 0 5.86-14.14V48a20 20 0 0 0-20-20M52 52h152v92h-48a12 12 0 0 0-12 12v48H52Zm116 139v-23h23Z"/></svg>

<svg xmlns="http://www.w3.org/2000/svg" viewBox="0 0 256 256" fill="currentColor"><path d="M208,28H48A20,20,0,0,0,28,48V208a20,20,0,0,0,20,20H156.69a19.86,19.86,0,0,0,14.14-5.86l51.31-51.31A19.86,19.86,0,0,0,228,156.69V48A20,20,0,0,0,208,28ZM52,52H204v92H156a12,12,0,0,0-12,12v48H52ZM168,191V168h23Z"/></svg>
